X:1
T:Merry Harriers, The
R:reel
Z:id:hn-reel-609
M:C|
Q:1/2=120
K:Ador
eA~A2 egfg|eA~A2 BGBd|eA~A2 eg~g2| afge dgfg|
eA~A2 egfg|eA~A2 BGBd|eA~A2 eg~g2| afge d2Bc||
dg~g2 bg~g2|dg~g2 dGBc|dggf gabg| abge d2Bc|
dg~g2 bg~g2|dg~g2 dGBc|dggf gabg| abge dgfg|]
